material/.icons/material/bike.svg

<svg xmlns="http://www.w3.org/2000/svg" viewBox="0 0 24 24"><path d="M5 20.5A3.5 3.5 0 011.5 17 3.5 3.5 0 015 13.5 3.5 3.5 0 018.5 17 3.5 3.5 0 015 20.5M5 12a5 5 0 00-5 5 5 5 0 005 5 5 5 0 005-5 5 5 0 00-5-5m9.8-2H19V8.2h-3.2l-1.94-3.27c-.29-.5-.86-.83-1.46-.83-.47 0-.9.19-1.2.5L7.5 8.29C7.19 8.6 7 9 7 9.5c0 .63.33 1.16.85 1.47L11.2 13v5H13v-6.5l-2.25-1.65 2.32-2.35m5.93 13a3.5 3.5 0 01-3.5-3.5 3.5 3.5 0 013.5-3.5 3.5 3.5 0 013.5 3.5 3.5 3.5 0 01-3.5 3.5m0-8.5a5 5 0 00-5 5 5 5 0 005 5 5 5 0 005-5 5 5 0 00-5-5m-3-7.2c1 0 1.8-.8 1.8-1.8S17 1.2 16 1.2 14.2 2 14.2 3 15 4.8 16 4.8z"/></svg>

<?xml version="1.0" encoding="UTF-8"?><!DOCTYPE svg PUBLIC "-//W3C//DTD SVG 1.1//EN" "http://www.w3.org/Graphics/SVG/1.1/DTD/svg11.dtd"><svg xmlns="http://www.w3.org/2000/svg" xmlns:xlink="http://www.w3.org/1999/xlink" version="1.1" id="mdi-bike" width="24" height="24" viewBox="0 0 24 24"><path d="M5,20.5A3.5,3.5 0 0,1 1.5,17A3.5,3.5 0 0,1 5,13.5A3.5,3.5 0 0,1 8.5,17A3.5,3.5 0 0,1 5,20.5M5,12A5,5 0 0,0 0,17A5,5 0 0,0 5,22A5,5 0 0,0 10,17A5,5 0 0,0 5,12M14.8,10H19V8.2H15.8L13.86,4.93C13.57,4.43 13,4.1 12.4,4.1C11.93,4.1 11.5,4.29 11.2,4.6L7.5,8.29C7.19,8.6 7,9 7,9.5C7,10.13 7.33,10.66 7.85,10.97L11.2,13V18H13V11.5L10.75,9.85L13.07,7.5M19,20.5A3.5,3.5 0 0,1 15.5,17A3.5,3.5 0 0,1 19,13.5A3.5,3.5 0 0,1 22.5,17A3.5,3.5 0 0,1 19,20.5M19,12A5,5 0 0,0 14,17A5,5 0 0,0 19,22A5,5 0 0,0 24,17A5,5 0 0,0 19,12M16,4.8C17,4.8 17.8,4 17.8,3C17.8,2 17,1.2 16,1.2C15,1.2 14.2,2 14.2,3C14.2,4 15,4.8 16,4.8Z" /></svg>
